symbols/web/bookmark_add/materialsymbolssharp/bookmark_add_wght200gradN25fill1_20px.svg

<svg xmlns="http://www.w3.org/2000/svg" height="20" width="20"><path d="M5.104 16.104V3.458h6.25q-.312.292-.469.948-.156.656-.156 1.094 0 1.479.959 2.521.958 1.041 2.354 1.187.229.042.448.042.218 0 .406-.042v6.896L10 13.979Zm8.938-8.562V5.917h-1.625v-.834h1.625V3.458h.854v1.625h1.625v.834h-1.625v1.625Z"/></svg>

<svg xmlns="http://www.w3.org/2000/svg" height="20" width="20"><path d="M5.104 16.104V3.458H11.354Q11.042 3.75 10.885 4.406Q10.729 5.062 10.729 5.5Q10.729 6.979 11.688 8.021Q12.646 9.062 14.042 9.208Q14.271 9.25 14.49 9.25Q14.708 9.25 14.896 9.208V16.104L10 13.979ZM14.042 7.542V5.917H12.417V5.083H14.042V3.458H14.896V5.083H16.521V5.917H14.896V7.542Z"/></svg>
